img/service-3-1.svg

<svg fill="none" height="584" viewBox="0 0 681 584" width="681" xmlns="http://www.w3.org/2000/svg" xmlns:xlink="http://www.w3.org/1999/xlink"><clipPath id="a"><path d="m.195312.195312h680v680h-680z"/></clipPath><g clip-path="url(#a)"><path d="m265.221 180.652 1.099 174.02c.076 11.902-9.512 21.611-21.413 21.686-12.788.081-22.832-10.927-21.583-23.654l16.997-173.193c.625-6.359 5.952-11.22 12.342-11.26 6.892-.044 12.515 5.508 12.558 12.401z" fill="#0d06c1"/><path d="m250.912 234.681 14.322 76.881c2.464 13.224-5.857 26.062-18.934 29.213-15.832 3.815-31.088-8.112-31.208-24.396l-.508-69.031c-.018-2.497-.325-4.983-.915-7.409l-20.164-82.968c-1.978-8.141 3.027-16.343 11.172-18.305 7.67-1.848 15.474 2.499 17.939 9.994z" fill="#241ed3"/><path d="m231.382 227.802 31.256 71.078c5.438 12.366.478 26.836-11.404 33.265-14.486 7.839-32.515.372-37.216-15.414l-20.327-68.252c-.713-2.393-1.7-4.696-2.942-6.862l-52.859-92.203c-4.281-7.467-1.571-16.994 5.999-21.09 6.764-3.661 15.195-1.737 19.702 4.496l64.389 89.043c1.34 1.854 2.481 3.845 3.402 5.939z" fill="#403add"/><path d="m194.251 237.44 55.473 48.655c10.003 8.774 15.969 21.267 16.505 34.562l2.664 66.156c.692 17.173 8.338 33.327 21.18 44.749l12.671 11.269c19.927 17.722 25.092 46.8 12.488 70.301-17.586 32.792-61.176 40.569-89.019 15.884l-52.826-46.837-92.7487-82.748c-7.9005-7.048-11.856-17.514-10.5925-28.026l5.5422-46.113c.851-7.08 7.0251-12.301 14.1483-11.964 6.4043.302 11.7277 5.036 12.7777 11.361l3.363 20.266c1.545 9.308 7.073 17.48 15.139 22.377l16.437 9.981c10.873 6.602 24.629 6.112 35.005-1.246 18.8-13.331 25.425-38.17 15.76-59.093l-10.659-23.075c-5.223-11.308-19.071-15.631-29.8-9.303l-44.713 26.373c-5.7193 3.373-13.0691 1.802-16.9098-3.614-3.8554-5.437-2.8824-12.925 2.2346-17.196l63.7782-53.234c12.246-10.221 30.11-10.003 42.102.515z" fill="#5b57ca"/><path clip-rule="evenodd" d="m451.562 384.076h-156.586c-.894 0-1.619-.725-1.619-1.619l.001-156.397c-.001-.063 0-.126 0-.189-.001-87.374 70.83-158.2044 158.204-158.2044s158.205 70.8304 158.205 158.2044-70.831 158.205-158.205 158.205z" fill="#f55c5c" fill-rule="evenodd"/><path clip-rule="evenodd" d="m550.966 274.918c.957-3.608-2.345-6.903-5.952-5.937l-22.851 6.123c-1.607.431-3.354.035-4.426-1.236-4.032-4.78-5.731-11.121-4.63-17.277.293-1.637 1.609-2.853 3.215-3.284l22.587-6.052c3.607-.966 4.82-5.471 2.186-8.118l-8.596-8.638c-1.227-1.233-3.02-1.716-4.7-1.266l-29.84 7.996c-1.68.45-2.992 1.764-3.438 3.446l-2.215 8.349c-1.487 5.605-5.858 9.986-11.459 11.487l-135.462 36.297c-7.332 1.964-11.682 9.5-9.718 16.832 1.965 7.331 9.5 11.682 16.832 9.717l135.46-36.296c5.601-1.501 11.577.108 15.667 4.218l6.096 6.127c1.227 1.233 3.02 1.715 4.7 1.265l29.84-7.995c1.68-.451 2.992-1.765 3.438-3.446z" fill="#fff500" fill-rule="evenodd"/><rect fill="#f3e900" height="156.276" rx="7.85307" transform="matrix(-.258819 -.965926 -.965926 .258819 494.209 278.882)" width="15.7061"/><path d="m450.291 610.047v.809zm97.143 0v.809h.809v-.809zm-193.477-97.143c0-53.203 43.13-96.333 96.334-96.333v-1.619c-54.098 0-97.953 43.854-97.953 97.952zm96.334 96.333c-53.204 0-96.334-43.13-96.334-96.333h-1.619c0 54.098 43.855 97.952 97.953 97.952zm97.143 0h-97.143v1.619h97.143zm-.81-96.333v97.143h1.619v-97.143zm-96.333-96.333c53.203 0 96.333 43.13 96.333 96.333h1.619c0-54.098-43.855-97.952-97.952-97.952z" fill="#fff"/><path d="m568.035 181.839c0-10.849-8.795-19.644-19.643-19.644h-90.909v39.287h90.909c10.848 0 19.643-8.794 19.643-19.643z" fill="#fff500"/><rect fill="#f3ea00" height="85.8834" rx="2.28413" transform="matrix(-.00000004 1 1 .00000004 465.705 170.419)" width="4.56827"/><rect fill="#f3ea00" height="85.8834" rx="2.28413" transform="matrix(-.00000004 1 1 .00000004 465.705 188.691)" width="4.56827"/><rect fill="#f3ea00" height="85.8834" rx="2.28413" transform="matrix(-.00000004 1 1 .00000004 465.705 179.556)" width="4.56827"/><path d="m349.719 174.373c-.984-.157-1.875.603-1.875 1.599v12.648c0 .997.891 1.756 1.875 1.599l20.839-3.334c.085-.014.17-.021.256-.021h81.186c2.523 0 4.569-2.045 4.569-4.568s-2.046-4.568-4.569-4.568h-81.186c-.086 0-.171-.007-.256-.02z" fill="#e6e6e6"/><path d="m349.719 174.373c-.984-.157-1.875.603-1.875 1.599v12.648c0 .997.891 1.756 1.875 1.599l19.603-3.136c.785-.126 1.363-.804 1.363-1.599v-6.376c0-.795-.578-1.473-1.363-1.598z" fill="#fff"/><rect fill="#f3ea00" height="8.22288" rx="4.11144" transform="matrix(-.00000004 1 1 .00000004 452 156.714)" width="50.2509"/><g fill="#fff500"><path clip-rule="evenodd" d="m490.46 517.853c-.559-.15-1.155.01-1.564.419l-19.397 19.397c-.409.409-.569 1.005-.419 1.564l7.1 26.497c.149.558.586.995 1.144 1.145l26.497 7.099c.559.15 1.155-.01 1.564-.419l19.397-19.397c.409-.409.569-1.005.419-1.564l-7.1-26.496c-.149-.559-.586-.995-1.145-1.145zm23.396 23.676c-2.546-9.5-12.311-15.139-21.812-12.593s-15.139 12.311-12.594 21.812c2.546 9.501 12.312 15.139 21.813 12.593 9.5-2.545 15.139-12.311 12.593-21.812z" fill-rule="evenodd"/><path d="m417.302 505.771c-.772.452-1.764.192-2.216-.579l-10.634-18.164c-.452-.772-.192-1.763.579-2.215l51.697-30.267c.771-.451 1.763-.192 2.215.58l10.634 18.163c.452.772.193 1.764-.579 2.215z"/><rect height="15.2699" rx="1.61905" transform="matrix(-.50525076 -.86297258 .86297258 -.50525076 163.856606 1151.184332)" width="57.1391" x="411.92" y="528.622"/></g><rect fill="#f3ea00" height="15.2699" rx="1.61905" transform="matrix(-.50525076 -.86297258 .86297258 -.50525076 163.619377 1125.542327)" width="27.5844" x="404.451" y="515.869"/></g></svg>

<svg width="681" height="584" viewBox="0 0 681 584" fill="none" xmlns="http://www.w3.org/2000/svg">
<g clip-path="url(#clip0_3189_2880)">
<path d="M265.221 180.652L266.32 354.672C266.396 366.574 256.808 376.283 244.907 376.358C232.119 376.439 222.075 365.431 223.324 352.704L240.321 179.511C240.946 173.152 246.273 168.291 252.663 168.251C259.555 168.207 265.178 173.759 265.221 180.652Z" fill="#0D06C1"/>
<path d="M250.912 234.681L265.234 311.562C267.698 324.786 259.377 337.624 246.3 340.775C230.468 344.59 215.212 332.663 215.092 316.379L214.584 247.348C214.566 244.851 214.259 242.365 213.669 239.939L193.505 156.971C191.527 148.83 196.532 140.628 204.677 138.666C212.347 136.818 220.151 141.165 222.616 148.66L250.912 234.681Z" fill="#241ED3"/>
<path d="M231.382 227.802L262.638 298.88C268.076 311.246 263.116 325.716 251.234 332.145C236.748 339.984 218.719 332.517 214.018 316.731L193.691 248.479C192.978 246.086 191.991 243.783 190.749 241.617L137.89 149.414C133.609 141.947 136.319 132.42 143.889 128.324C150.653 124.663 159.084 126.587 163.591 132.82L227.98 221.863C229.32 223.717 230.461 225.708 231.382 227.802Z" fill="#403ADD"/>
<path d="M194.251 237.44L249.724 286.095C259.727 294.869 265.693 307.362 266.229 320.657L268.893 386.813C269.585 403.986 277.231 420.14 290.073 431.562L302.744 442.831C322.671 460.553 327.836 489.631 315.232 513.132C297.646 545.924 254.056 553.701 226.213 529.016L173.387 482.179L80.6383 399.431C72.7378 392.383 68.7823 381.917 70.0458 371.405L75.588 325.292C76.439 318.212 82.6131 312.991 89.7363 313.328C96.1406 313.63 101.464 318.364 102.514 324.689L105.877 344.955C107.422 354.263 112.95 362.435 121.016 367.332L137.453 377.313C148.326 383.915 162.082 383.425 172.458 376.067C191.258 362.736 197.883 337.897 188.218 316.974L177.559 293.899C172.336 282.591 158.488 278.268 147.759 284.596L103.046 310.969C97.3267 314.342 89.9769 312.771 86.1362 307.355C82.2808 301.918 83.2538 294.43 88.3708 290.159L152.149 236.925C164.395 226.704 182.259 226.922 194.251 237.44Z" fill="#5B57CA"/>
<path fill-rule="evenodd" clip-rule="evenodd" d="M451.562 384.076L294.976 384.076C294.082 384.076 293.357 383.351 293.357 382.457L293.358 226.06C293.357 225.997 293.358 225.934 293.358 225.871C293.357 138.497 364.188 67.6666 451.562 67.6666C538.936 67.6666 609.767 138.497 609.767 225.871C609.767 313.245 538.936 384.076 451.562 384.076C451.562 384.076 451.562 384.076 451.562 384.076Z" fill="#F55C5C"/>
<path fill-rule="evenodd" clip-rule="evenodd" d="M550.966 274.918C551.923 271.31 548.621 268.015 545.014 268.981L522.163 275.104C520.556 275.535 518.809 275.139 517.737 273.868C513.705 269.088 512.006 262.747 513.107 256.591C513.4 254.954 514.716 253.738 516.322 253.307L538.909 247.255C542.516 246.289 543.729 241.784 541.095 239.137L532.499 230.499C531.272 229.266 529.479 228.783 527.799 229.233L497.959 237.229C496.279 237.679 494.967 238.993 494.521 240.675L492.306 249.024C490.819 254.629 486.448 259.01 480.847 260.511L345.385 296.808C338.053 298.772 333.703 306.308 335.667 313.64C337.632 320.971 345.167 325.322 352.499 323.357L487.959 287.061C493.56 285.56 499.536 287.169 503.626 291.279L509.722 297.406C510.949 298.639 512.742 299.121 514.422 298.671L544.262 290.676C545.942 290.225 547.254 288.911 547.7 287.23L550.966 274.918Z" fill="#FFF500"/>
<rect width="15.7061" height="156.276" rx="7.85307" transform="matrix(-0.258819 -0.965926 -0.965926 0.258819 494.209 278.882)" fill="#F3E900"/>
<path d="M450.291 610.047L450.291 610.856L450.291 610.047ZM547.434 610.047L547.434 610.856L548.243 610.856L548.243 610.047L547.434 610.047ZM353.957 512.904C353.957 459.701 397.087 416.571 450.291 416.571L450.291 414.952C396.193 414.952 352.338 458.806 352.338 512.904L353.957 512.904ZM450.291 609.237C397.087 609.237 353.957 566.107 353.957 512.904L352.338 512.904C352.338 567.002 396.193 610.856 450.291 610.856L450.291 609.237ZM547.434 609.237L450.291 609.237L450.291 610.856L547.434 610.856L547.434 609.237ZM546.624 512.904L546.624 610.047L548.243 610.047L548.243 512.904L546.624 512.904ZM450.291 416.571C503.494 416.571 546.624 459.701 546.624 512.904L548.243 512.904C548.243 458.806 504.388 414.952 450.291 414.952L450.291 416.571Z" fill="white"/>
<path d="M568.035 181.839C568.035 170.99 559.24 162.195 548.392 162.195L457.483 162.195L457.483 201.482L548.392 201.482C559.24 201.482 568.035 192.688 568.035 181.839Z" fill="#FFF500"/>
<rect width="4.56827" height="85.8834" rx="2.28413" transform="matrix(-3.85215e-08 1 1 3.85215e-08 465.705 170.419)" fill="#F3EA00"/>
<rect width="4.56827" height="85.8834" rx="2.28413" transform="matrix(-3.85215e-08 1 1 3.85215e-08 465.705 188.691)" fill="#F3EA00"/>
<rect width="4.56827" height="85.8834" rx="2.28413" transform="matrix(-3.85215e-08 1 1 3.85215e-08 465.705 179.556)" fill="#F3EA00"/>
<path d="M349.719 174.373C348.735 174.216 347.844 174.976 347.844 175.972L347.844 188.62C347.844 189.617 348.735 190.376 349.719 190.219L370.558 186.885C370.643 186.871 370.728 186.864 370.814 186.864L452 186.864C454.523 186.864 456.569 184.819 456.569 182.296C456.569 179.773 454.523 177.728 452 177.728L370.814 177.728C370.728 177.728 370.643 177.721 370.558 177.708L349.719 174.373Z" fill="#E6E6E6"/>
<path d="M349.719 174.373C348.735 174.216 347.844 174.976 347.844 175.972L347.844 188.62C347.844 189.617 348.735 190.376 349.719 190.219L369.322 187.083C370.107 186.957 370.685 186.279 370.685 185.484L370.685 179.108C370.685 178.313 370.107 177.635 369.322 177.51L349.719 174.373Z" fill="white"/>
<rect width="50.2509" height="8.22288" rx="4.11144" transform="matrix(-3.85215e-08 1 1 3.85215e-08 452 156.714)" fill="#F3EA00"/>
<path fill-rule="evenodd" clip-rule="evenodd" d="M490.46 517.853C489.901 517.703 489.305 517.863 488.896 518.272L469.499 537.669C469.09 538.078 468.93 538.674 469.08 539.233L476.18 565.73C476.329 566.288 476.766 566.725 477.324 566.875L503.821 573.974C504.38 574.124 504.976 573.964 505.385 573.555L524.782 554.158C525.191 553.749 525.351 553.153 525.201 552.594L518.101 526.098C517.952 525.539 517.515 525.103 516.956 524.953L490.46 517.853ZM513.856 541.529C511.31 532.029 501.545 526.39 492.044 528.936C482.543 531.482 476.905 541.247 479.45 550.748C481.996 560.249 491.762 565.887 501.263 563.341C510.763 560.796 516.402 551.03 513.856 541.529Z" fill="#FFF500"/>
<path d="M417.302 505.771C416.53 506.223 415.538 505.963 415.086 505.192L404.452 487.028C404 486.256 404.26 485.265 405.031 484.813L456.728 454.546C457.499 454.095 458.491 454.354 458.943 455.126L469.577 473.289C470.029 474.061 469.77 475.053 468.998 475.504L417.302 505.771Z" fill="#FFF500"/>
<rect x="411.92" y="528.622" width="57.1391" height="15.2699" rx="1.61905" transform="rotate(-120.348 411.92 528.622)" fill="#FFF500"/>
<rect x="404.451" y="515.869" width="27.5844" height="15.2699" rx="1.61905" transform="rotate(-120.348 404.451 515.869)" fill="#F3EA00"/>
</g>
<defs>
<clipPath id="clip0_3189_2880">
<rect width="680" height="680" fill="white" transform="translate(0.195312 0.195312)"/>
</clipPath>
</defs>
</svg>
